X:1
L:1/8
M:none
K:Bb
V:1 treble
 V:1  z | z | z | z | z | z | z | z B, C D/E/F/ D C B, C/D/E/ | A, F, z2 z4 | 
  z z B, C D/E/F/ D C B, C/D/E/ | A, F, z | 
